X:1
T:Hark, the Sounds Melodious Stealing
T:Anonymous, before 1913
T:Hark, the Sounds Melodious Stealing
T:Public Domain
T:Public Domain
T:Public Domain
C:Anonymous, before 1913
Z:Public Domain
%%score ( 1 2 ) ( 3 4 )
L:1/8
M:6/8
K:C
V:1 treble 
V:2 treble 
V:3 bass 
V:4 bass 
V:1
 [EG]2 [EG] (GG)[FB] | [Ec]2 [EG] [^DB]2 [DA] | [EG]2 [FA] [DF]2 [B,G] | [CE]2 [^DB] [EG]2 z | %4
w: 1.~Hark, the sounds * me-|dious steal- ing Thro’|the qui- et mid-|night air; Sweet,|
w: 2.~Wise men tra- * veled|they found Him, Found|a King in Beth-|le- hem! King,|
w: 3.~Let us lift * our|and voic- es Prince|Im- man- uel’s praise|to sing; While|
 [EG]2 [EG] (GA)[FB] | [Ec]2 [G^c] [Fd]2 [FA] | (cB)[=DA] ([EG][DF])[CE] | [B,D]2 [B,E] C2 z | %8
w: se- raph- ic * mu-|peal- ing O- ver|all * the land- * scape|An- gel hosts|
w: with sheep and * cat-|’round Him? King, with-|out * a di- * a-|Yes! the Prince|
w: the heav’n- ly * host|joic- es, Let us,|too, * our trib- * ute|Heav’n- ward, now,|
"^Quartet or Chorus" [B,D]2 [DG] [DA]2 D | [DG]2 [DA] (Bc)[Gd] | [Ge]2 [Gd] [Gc]2 [^GB] | %11
w: bright- est glo- ry,|ver o’er a * low-|bed— Bed of Him|
w: Peace e- ter- nal,|of kings, of * lords|Lord! Hark! the swell-|
w: star is point- ing,|He sits at * God’s|hand, Un- to each|
 [EA]2 E [DA]2 z | D2 [DG] [DA]2 D | [DG]2 [^FA] (Bc)[Gd] | [Ge]2 [^Gd] [Ac]2 [GB] | %15
w: fore- told in|ry, Son of Man,|tion’s Head. Sing- * ing,|ry to God, Glo-|
w: ing choirs su-|nal As they join|ac- cord: * * *||
w: His crown ap-|ing, Who be- fore|shall stand. * * *||
 [GA]2 [^FB] G ||"^Refrain" AA | (E2 E [Ec])Bc | (FFF [Fd]2) z | (F2 F [Fd])cd | (GGG [Ge]2) z | %21
w: ry to God,|ry to|God * * in the|est, * * *|ing, * * * Glo-|to * * *|
w: ||||||
w: ||||||
 (_B2 B) [Bd]2 [Bc] | ([Af]2 [Ae]) [Ad]2 c | (G2 G ^F2 F) | (G3- [FG])AA | (E2 E [Ec])Bc | %26
w: Glo- * ry to|God, * Glo- ry|to * * *|the * high- est,||
w: |||||
w: |||||
 (FFF [Fd]2) z | (F2 F [Fd])cd | (GGG [Ge]2) z | (G2 G) [Ed]2 [Ec] | (F2 F [Ff])Bc | (GGG GGF) | %32
w: ||||||
w: ||||||
w: ||||||
 (E2 F [Ec]2) z |] %33
w: |
w: |
w: |
V:2
 x3 F2 x | x6 | x6 | x6 | x3 F2 x | x6 | ^D2 x4 | x3 C2 x | x5 D | x3 D2 x | x6 | x2 E x3 | %12
w: lo-||||sic||fair.|of|Ho-|ly||sto-|
w: till||||tle||dem?|of|King|the||per-|
w: hearts||||re-||bring.|His|Where|right||point-|
 D2 x D x2 | x3 G2 x | x6 | x3 G || x2 | c3- x3 | d3- x3 | d3- x3 | e3- x3 | e3 x3 | x6 | B3 A3 | %24
w: cre- a-|Glo-||Glo-||high-|Sing-|ry|God,|||God in|
w: with one||||||||||||
w: His throne||||||||||||
 G3 x3 | c3- x3 | d3- x3 | d3- x3 | e3- x3 | e3 x3 | f3- x3 | e3 d3 | c3- x3 |] %33
w: |||||||||
w: |||||||||
w: |||||||||
V:3
 [C,G,]2 z [D,G,]2 z | [C,G,]2 z [C,^F,]2 z | [C,G,]2 z [G,,G,]2 z | [C,G,]2 z [C,G,]2 z | %4
w: ~ ~|~ ~|~ ~|~ ~|
 [C,G,]2 z [D,G,]2 z | [C,G,]2 z [F,A,]2 z | [F,A,]2 z G,2 z | [G,,F,]2 z [C,E,]2 z | %8
w: ~ ~|~ ~|~ ~|~ ~|
 [G,,G,]2 [B,,G,] [D,^F,]2 [C,F,] | [B,,G,]2 [D,^F,] (G,A,)[G,B,] | [C,C]2 [D,B,] [E,C]2 [E,D] | %11
w: ~ ~ ~ ~|~ ~ ~ * ~|~ ~ ~ ~|
 [A,C]2 [G,^C] (D2 =C) | [G,B,]2 [G,B,] [^F,A,]2 [A,C] | [G,B,]2 [D,D] (G,A,)[B,D] | %14
w: ~ ~ ~ *|~ ~ ~ ~|~ ~ ~ * ~|
 C2 [B,E] [A,E]2 [B,E] | [CE]2 D [G,B,] || z z | [C,G,]2 [C,G,] [C,G,] z2 | %18
w: ~ ~ ~ Peace|earth, good will||men! Peace on|
 [G,B,][G,B,][G,B,] [G,B,]2 z | [G,B,]2 [G,B,] [G,B,] z2 | [C,C][C,C][C,C] [C,C]2 z | %21
w: earth, good will to|men! Peace on|earth, good will to|
 [G,C]2 [G,C] [G,E]2 [G,E] | [F,C]2 [F,C] [^F,D]2 z | [G,D]2 [B,D] D2 [D,C] | [G,B,]4 z2 | %25
w: men, Glo- ry be|to God. Peace|on earth, good will|men!|
 [C,G,]2 [C,G,] [C,G,] z2 | [G,B,][G,B,][G,B,] [G,B,]2 z | [G,B,]2 [G,B,] [G,B,] z2 | %28
w: Peace on earth,|good will to men!|Peace on earth,|
 [C,C][C,C][C,C] [C,C]2 z | [_B,C]2 [B,C] [B,C]2 [B,C] | [A,C]2 [A,C] [_A,C] z2 | %31
w: good will to men!|Glo- ry to God|in the high-|
 [G,C][G,C][G,C] [G,C][G,C][G,C] | (C2 A,) [C,G,]2 z |] %33
w: est! * * * * *||
V:4
 x6 | x6 | x6 | x6 | x6 | x6 | x3 G,2 x | x6 | x6 | x3 G,2 x | x6 | x3 ^F,3 | x6 | x3 D2 x | %14
w: ||||||~|||~||~||~|
 C2 x4 | x2 D x || x2 | x6 | x6 | x6 | x6 | x6 | x6 | x3 D2 x | x6 | x6 | x6 | x6 | x6 | x6 | x6 | %31
w: on|to||||||||to||||||||
 x6 | C,3 x3 |] %33
w: ||

